X: 10421
T: Donald's Rant
R: reel
M: 4/4
K: Dmajor
dBAF ~A3 f|gfed eB~B2|dBAF ~A3 F|1 BAAB ~d3 e:|2 BAAB ~d3 A||
d2 ef ~d3 e|dB~B2 dBAB|1 d2 ef ~d3 e|dBAB d2 (3A/B/c:|2 defd ed B2|BAAB ~d3 e||

